X: 22638
T: Laird O' Bemersyde, The
R: strathspey
M: 4/4
K: Amajor
E|A,>C E>D C<E A2|D>F B>A G<B ed|c>A B>G AFE2|F>D E>C DC/B,/ C<E|
A,>C E>D C<E A2|D>F B>A G<B ed|ca Bg AF GE|FD GEA3d|
cd/e/ ag fe dc|Bc/d/ gf ed cB|AB/c/ f>e dc BA|B<F B>A G<E Ed|
cd/e/ a>g fe dc|Bc/d/ gf ed c>B|A3/2B//c// F3/2G//^A// B3/2c//d// g>f|ed/B/ G<e c<A A||

